assets/icons/games/ocarina-of-time.svg

<svg xmlns="http://www.w3.org/2000/svg" xml:space="preserve" id="Layer_1" x="0px" y="0px" version="1.1" viewBox="0 0 32 32"><style>.st0{fill:#fff}</style><path id="XMLID_28_" d="M7.258 9.824c-1.144-.946-5.709 3.739-4.917 5.343.79 1.603 2.101 3.924 2.101 3.924s.558-1.375 3.36-2.882 3.29-5.461 3.29-5.461-2.689.022-3.834-.924" class="st0"/><path id="XMLID_27_" d="M3.258 10.262c.329-.322.875-.817 1.467-1.189-1.511-1.301-3.349-1.666-4.24-.792-.923.905-.49 2.809.956 4.32.437-.822 1.13-1.664 1.817-2.339" class="st0"/><path id="XMLID_7_" d="m12.462 10.832-.017.017-.049.398c-.016.124-.397 3.05-2.324 4.94-.377.37-.793.678-1.237.917-.994.535-1.808 1.11-2.417 1.706a11 11 0 0 0-1.109 1.328l-.039.076-.725 1.527c-1.366 3.201-1.497 5.867-.072 7.265 2.909 2.854 11.204-.656 18.525-7.839 7.322-7.184 10.9-15.321 7.99-18.175s-11.204.656-18.526 7.84m-1.497 17.133c-.634.635-1.581.716-2.114.183s-.449-1.479.184-2.113c.635-.635 1.58-.716 2.114-.183.532.532.45 1.478-.184 2.113m5-2c-.634.634-1.58.716-2.113.183s-.451-1.479.183-2.113c.634-.635 1.581-.717 2.114-.184.532.534.451 1.479-.184 2.114m-2.904-3.905a1.5 1.5 0 1 1-2.121-2.12 1.5 1.5 0 0 1 2.121 2.12m4.865-1.133c-.651.651-1.593.764-2.105.252s-.399-1.454.252-2.106c.652-.651 1.595-.764 2.107-.253.511.512.398 1.456-.254 2.107m1.135-8.866a1.5 1.5 0 1 1-2.121-2.12 1.5 1.5 0 0 1 2.121 2.12m4.168-.935c-.547.547-1.495.487-2.117-.135s-.682-1.57-.135-2.117c.548-.547 1.494-.486 2.116.135.622.622.683 1.57.136 2.117m2.909-2.988c-.539.539-1.486.468-2.114-.161-.629-.628-.701-1.575-.162-2.115.541-.54 1.487-.468 2.116.161.628.628.7 1.576.16 2.115" class="st0"/></svg>

<?xml version="1.0" encoding="utf-8"?>
<!-- Generator: Adobe Illustrator 19.2.1, SVG Export Plug-In . SVG Version: 6.00 Build 0)  -->
<svg version="1.1" id="Layer_1" xmlns="http://www.w3.org/2000/svg" xmlns:xlink="http://www.w3.org/1999/xlink" x="0px" y="0px"
	 viewBox="0 0 32 32" style="enable-background:new 0 0 32 32;" xml:space="preserve">
<style type="text/css">
	.st0{fill:#FFFFFF;}
	.st1{fill-rule:evenodd;clip-rule:evenodd;fill:#FFFFFF;}
</style>
<g>
	<g id="XMLID_28_">
		<path class="st0" d="M7.258,9.824c-1.144-0.946-5.709,3.739-4.917,5.343c0.79,1.603,2.101,3.924,2.101,3.924
			S5,17.716,7.802,16.209c2.802-1.507,3.29-5.461,3.29-5.461S8.403,10.77,7.258,9.824z"/>
	</g>
	<g id="XMLID_27_">
		<path class="st0" d="M3.258,10.262C3.587,9.94,4.133,9.445,4.725,9.073c-1.511-1.301-3.349-1.666-4.24-0.792
			c-0.923,0.905-0.49,2.809,0.956,4.32C1.878,11.779,2.571,10.937,3.258,10.262z"/>
	</g>
	<g id="XMLID_7_">
		<path class="st0" d="M12.462,10.832c-0.006,0.005-0.011,0.011-0.017,0.017l-0.049,0.398c-0.016,0.124-0.397,3.05-2.324,4.94
			c-0.377,0.37-0.793,0.678-1.237,0.917c-0.994,0.535-1.808,1.11-2.417,1.706c-0.543,0.533-1.03,1.216-1.109,1.328
			c-0.014,0.026-0.026,0.051-0.039,0.076l-0.725,1.527c-1.366,3.201-1.497,5.867-0.072,7.265c2.909,2.854,11.204-0.656,18.525-7.839
			c7.322-7.184,10.9-15.321,7.99-18.175C28.078,0.138,19.784,3.648,12.462,10.832z M10.965,27.965
			c-0.634,0.635-1.581,0.716-2.114,0.183c-0.532-0.532-0.449-1.479,0.184-2.113c0.635-0.635,1.58-0.716,2.114-0.183
			C11.681,26.384,11.599,27.33,10.965,27.965z M15.965,25.965c-0.634,0.634-1.58,0.716-2.113,0.183
			c-0.533-0.532-0.451-1.479,0.183-2.113c0.634-0.635,1.581-0.717,2.114-0.184C16.681,24.385,16.6,25.33,15.965,25.965z
			 M13.061,22.06c-0.586,0.586-1.536,0.586-2.121,0c-0.586-0.586-0.586-1.536-0.001-2.121c0.586-0.586,1.536-0.586,2.122,0
			C13.646,20.525,13.646,21.475,13.061,22.06z M17.926,20.927c-0.651,0.651-1.593,0.764-2.105,0.252
			c-0.512-0.512-0.399-1.454,0.252-2.106c0.652-0.651,1.595-0.764,2.107-0.253C18.691,19.332,18.578,20.276,17.926,20.927z
			 M19.061,12.061c-0.587,0.586-1.535,0.586-2.121,0c-0.587-0.586-0.586-1.536,0-2.121c0.585-0.586,1.535-0.585,2.12,0
			C19.647,10.525,19.647,11.475,19.061,12.061z M23.229,11.126c-0.547,0.547-1.495,0.487-2.117-0.135
			c-0.622-0.622-0.682-1.57-0.135-2.117c0.548-0.547,1.494-0.486,2.116,0.135C23.715,9.631,23.776,10.579,23.229,11.126z
			 M26.138,8.138c-0.539,0.539-1.486,0.468-2.114-0.161c-0.629-0.628-0.701-1.575-0.162-2.115c0.541-0.54,1.487-0.468,2.116,0.161
			C26.606,6.651,26.678,7.599,26.138,8.138z"/>
	</g>
</g>
</svg>
